X: 1
T: Cherry Blossom Time
T: 8x32J 3C (Drewry)
T: CR, set; CL, set; r3side; TL, TR
P: Steve's Train to the Moon
R: jig
C: P/M Murray Blair
C: Sacramento PB rec., arr. by T. Traub 10-16-2014
M: 6/8
K: A
L: 1/8
|: B|"A"A2 c cee|"D"fee "E"ecB|"A"Ace ece|"D"faa "E"f2 e|"A"A2 c cee|"D"fee "E"ecB|"D"caa fec|"E"BAA "A"A2 :|
|: B|"A"Aaa f2 e|"D"fae fea|"A"ece "D"faf|"A"ecc "E"c2 B|"A"Aaa f2 e|"F"fae fea|"D"caa fec|"E"BAA "A"A2 :|

